src/basic/100/u1F5D9-close.svg

<svg width="96" height="128" viewBox="0 0 96 128" fill="none" xmlns="http://www.w3.org/2000/svg">
<path d="M48,64.7071l-45.64647,45.6469l-0.70711,-0.708l45.64648,-45.646l-45.64654,-45.6465l0.70711,-0.7071l45.64653,45.6465l45.6465,-45.6465l0.7071,0.7071l-45.6465,45.6465l45.6465,45.646l-0.7072,0.708z" fill="black"/>
</svg>

<svg width="96" height="128" viewBox="0 0 96 128" fill="none" xmlns="http://www.w3.org/2000/svg">
<path d="M48 64.7071L2.35353 110.354L1.64642 109.646L47.2929 64L1.64636 18.3535L2.35347 17.6464L48 63.2929L93.6465 17.6464L94.3536 18.3535L48.7071 64L94.3536 109.646L93.6464 110.354L48 64.7071Z" fill="black"/>
</svg>
